X:1
T:Colonel Ridley's Quickstep
R:JIG
B:RSCDS-15
Z:John Chambers
M:6/8
L:1/8
Q:116
%
K:A
    d | "A" c2A ABc | "E7" BGE E2d | "A" cAc          "A" edc | "E7" B2B  Bed |!
      | "A" c2A ABc | "E7" BGE E2d | "D" c/d/ec "E7"     dBG | "A"A3   A2 :|!
|:  d | "A" cde edc |  "D" def fed | "A" cAc          "A" edc | "E7" B2B  Bed |!
      | "A" cde edc |  "D" def fga | "D"  ece   "E7"     dBG | "A"A3   A2 :|!
